src/assets/images/contact/logo-linkedin.svg

<svg xmlns="http://www.w3.org/2000/svg" xmlns:xlink="http://www.w3.org/1999/xlink" viewBox="0,0,256,256" width="128px" height="128px"><defs><linearGradient x1="19" y1="24.858" x2="19" y2="49.041" gradientUnits="userSpaceOnUse" id="color-1"><stop offset="0" stop-color="#ffffff"></stop><stop offset="1" stop-color="#ffffff"></stop></linearGradient><linearGradient x1="19.382" y1="15.423" x2="19.382" y2="23.341" gradientUnits="userSpaceOnUse" id="color-2"><stop offset="0" stop-color="#ffffff"></stop><stop offset="1" stop-color="#ffffff"></stop></linearGradient><linearGradient x1="37.386" y1="14.125" x2="37.386" y2="49.525" gradientUnits="userSpaceOnUse" id="color-3"><stop offset="0" stop-color="#ffffff"></stop><stop offset="1" stop-color="#ffffff"></stop></linearGradient><linearGradient x1="32" y1="6.5" x2="32" y2="57.5" gradientUnits="userSpaceOnUse" id="color-4"><stop offset="0" stop-color="#ffffff"></stop><stop offset="1" stop-color="#ffffff"></stop></linearGradient></defs><g fill="none" fill-rule="none" stroke="none" stroke-width="1" stroke-linecap="butt" stroke-linejoin="miter" stroke-miterlimit="10" stroke-dasharray="" stroke-dashoffset="0" font-family="none" font-weight="none" font-size="none" text-anchor="none" style="mix-blend-mode: normal"><g transform="scale(4,4)"><path d="M22,48v-22h-6v22z" fill="url(#color-1)" fill-rule="evenodd"></path><path d="M19.358,23c2.512,0 4.076,-1.474 4.076,-3.554c-0.047,-2.126 -1.564,-3.649 -4.028,-3.649c-2.465,0 -4.076,1.475 -4.076,3.601c0,2.08 1.563,3.602 3.981,3.602h0.047z" fill="url(#color-2)" fill-rule="evenodd"></path><path d="M26.946,48h7.054v-12.089c0,-0.648 0.122,-1.295 0.313,-1.758c0.52,-1.295 1.877,-2.635 3.867,-2.635c2.607,0 3.821,1.988 3.821,4.901v11.581h6v-12.412c0,-6.657 -3.085,-9.498 -7.826,-9.498c-3.886,0 -5.124,1.91 -6.072,3.91h-0.103v-4h-7.054c0.095,2 -0.175,22 -0.175,22z" fill="url(#color-3)" fill-rule="evenodd"></path><path d="M50,57h-36c-3.859,0 -7,-3.141 -7,-7v-36c0,-3.859 3.141,-7 7,-7h36c3.859,0 7,3.141 7,7v36c0,3.859 -3.141,7 -7,7zM14,9c-2.757,0 -5,2.243 -5,5v36c0,2.757 2.243,5 5,5h36c2.757,0 5,-2.243 5,-5v-36c0,-2.757 -2.243,-5 -5,-5z" fill="url(#color-4)" fill-rule="nonzero"></path></g></g></svg>

<svg xmlns="http://www.w3.org/2000/svg"  viewBox="0 0 64 64" width="64px" height="64px" clip-rule="evenodd"><linearGradient id="SUJNhpmDQDF27Y3OfwgfYa" x1="19" x2="19" y1="24.858" y2="49.041" gradientUnits="userSpaceOnUse" spreadMethod="reflect"><stop offset="0" stop-color="#6dc7ff"/><stop offset="1" stop-color="#e6abff"/></linearGradient><path fill="url(#SUJNhpmDQDF27Y3OfwgfYa)" fill-rule="evenodd" d="M22 48L22 26 16 26 16 48 22 48z" clip-rule="evenodd"/><linearGradient id="SUJNhpmDQDF27Y3OfwgfYb" x1="19.382" x2="19.382" y1="15.423" y2="23.341" gradientUnits="userSpaceOnUse" spreadMethod="reflect"><stop offset="0" stop-color="#6dc7ff"/><stop offset="1" stop-color="#e6abff"/></linearGradient><path fill="url(#SUJNhpmDQDF27Y3OfwgfYb)" fill-rule="evenodd" d="M19.358,23c2.512,0,4.076-1.474,4.076-3.554 c-0.047-2.126-1.564-3.649-4.028-3.649c-2.465,0-4.076,1.475-4.076,3.601c0,2.08,1.563,3.602,3.981,3.602H19.358L19.358,23z" clip-rule="evenodd"/><linearGradient id="SUJNhpmDQDF27Y3OfwgfYc" x1="37.386" x2="37.386" y1="14.125" y2="49.525" gradientUnits="userSpaceOnUse" spreadMethod="reflect"><stop offset="0" stop-color="#6dc7ff"/><stop offset="1" stop-color="#e6abff"/></linearGradient><path fill="url(#SUJNhpmDQDF27Y3OfwgfYc)" fill-rule="evenodd" d="M26.946,48H34V35.911c0-0.648,0.122-1.295,0.313-1.758 c0.52-1.295,1.877-2.635,3.867-2.635c2.607,0,3.821,1.988,3.821,4.901V48h6V35.588c0-6.657-3.085-9.498-7.826-9.498 c-3.886,0-5.124,1.91-6.072,3.91H34v-4h-7.054c0.095,2-0.175,22-0.175,22H26.946z" clip-rule="evenodd"/><linearGradient id="SUJNhpmDQDF27Y3OfwgfYd" x1="32" x2="32" y1="6.5" y2="57.5" gradientUnits="userSpaceOnUse" spreadMethod="reflect"><stop offset="0" stop-color="#1a6dff"/><stop offset="1" stop-color="#c822ff"/></linearGradient><path fill="url(#SUJNhpmDQDF27Y3OfwgfYd)" d="M50,57H14c-3.859,0-7-3.141-7-7V14c0-3.859,3.141-7,7-7h36c3.859,0,7,3.141,7,7v36 C57,53.859,53.859,57,50,57z M14,9c-2.757,0-5,2.243-5,5v36c0,2.757,2.243,5,5,5h36c2.757,0,5-2.243,5-5V14c0-2.757-2.243-5-5-5H14z"/></svg>
